X:2
T:Largo from the New World Symphony
M:C
K:D
L:1/4
Q:1/2=50
 (f3/4a//)a (f3/4e//)d | (e3/4f//) (a3/4f//) e2 | (f3/4a//)a (f3/4e//)d | (e/f/) (e3/4d//) d2 | (a3/4d'/)d' (a/a/)b|
 (b/d'/)(c'/a/) b2 | (b3/4d'//)d' (c'/a/)b | (b/d'/)(c'/a/) b2 | (f3/4a//)a (f3/4e//)d | (e3/4f//) (a3/4f//) e2 |
 (f3/4a//)a (d3/4e//)f | (e3/4d//) (e/B/) d2 | (e3/4d//) (e/B/) d2| (e3/2d/) eB | d3 z |]
